images/icons/icon-arrow-down.svg

<svg width="16" height="16" fill="none" xmlns="http://www.w3.org/2000/svg"><path fill-rule="evenodd" clip-rule="evenodd" d="M3.80799 6.19526c-.26035-.26035-.68246-.26035-.94281 0-.26035.26035-.26035.68246 0 .94281l4.66035 4.66033a.92223.92223 0 0 0 .00624.0063c.13069.1307.30215.1958.47344.1953.16997-.0005.33977-.0656.46945-.1953.00209-.002.00415-.0041.00621-.0062l4.66033-4.66043c.2604-.26035.2604-.68246 0-.94281-.2603-.26035-.6824-.26035-.9428 0L8.00321 10.3905 3.80799 6.19526Z" fill="#2D3440"/></svg>

<svg width="16" height="16" viewBox="0 0 16 16" fill="none" xmlns="http://www.w3.org/2000/svg">
<path fill-rule="evenodd" clip-rule="evenodd" d="M3.80799 6.19526C3.54764 5.93491 3.12553 5.93491 2.86518 6.19526C2.60483 6.45561 2.60483 6.87772 2.86518 7.13807L7.52553 11.7984C7.52759 11.8005 7.52967 11.8026 7.53177 11.8047C7.66246 11.9354 7.83392 12.0005 8.00521 12C8.17518 11.9995 8.34498 11.9344 8.47466 11.8047C8.47675 11.8027 8.47881 11.8006 8.48087 11.7985L13.1412 7.13807C13.4016 6.87772 13.4016 6.45561 13.1412 6.19526C12.8809 5.93491 12.4588 5.93491 12.1984 6.19526L8.00321 10.3905L3.80799 6.19526Z" fill="#2D3440"/>
</svg>
